svg-icons/octicons/file-zip.svg

<svg viewBox="0 0 12 16" xmlns="http://www.w3.org/2000/svg">
  <path d="M8.5 1H1C0.45 1 0 1.45 0 2v12c0 0.55 0.45 1 1 1h10c0.55 0 1-0.45 1-1V4.5L8.5 1z m2.5 13H1V2h3v1h1v-1h3l3 3v9zM5 4v-1h1v1h-1z m-1 0h1v1h-1v-1z m1 2v-1h1v1h-1z m-1 0h1v1h-1v-1z m1 2v-1h1v1h-1z m-1 1.28c-0.59 0.34-1 0.98-1 1.72v1h4v-1c0-1.11-0.89-2-2-2v-1h-1v1.28z m2 0.72v1H4v-1h2z" />
</svg>

<svg xmlns="http://www.w3.org/2000/svg" viewBox="0 0 12 16"><path d="M8.5 1H1a1 1 0 0 0-1 1v12a1 1 0 0 0 1 1h10a1 1 0 0 0 1-1V4.5L8.5 1zM11 14H1V2h3v1h1V2h3l3 3v9zM5 4V3h1v1H5zM4 4h1v1H4V4zm1 2V5h1v1H5zM4 6h1v1H4V6zm1 2V7h1v1H5zM4 9.28A2 2 0 0 0 3 11v1h4v-1a2 2 0 0 0-2-2V8H4v1.28zM6 10v1H4v-1h2z"/></svg>
